X:22
T:Polska fr{\aa}n \"Alvdalen
R:polska K1
A:\"Alvdalen, Dalarna
Z:id:hn-k1-22
M:3/4
L:1/8
K:Dm
A2 d/e/d/^c/ A>c|e2 g/a/g/e/ f>g|S f>e d<^c A>c|d2 f/d/f/d/ e>e|
A2 d/e/d/^c/ A>c|e2 g/a/g/e/ f>g|S f>e d<^c A>c|S e2 e4:|
|: e2 g/a/g/e/ f>e|S d/^c/d/e/ (3fed ^c>d|e2 g/a/g/e/ f>e|S d/^c/d/e/ (3fed ^c>A|
S ^c<=B A>G A>c|S e2 e3=c|d2 =c/d/c/A/ =B>A|S G<=B A4:|

